!!!OTL: SCHAETZCHEN SAG WAS FEHLT DENN DIR
!!!ARE: Europa, Mitteleuropa, Deutschland, Hessen, Frankfurt a.M.; Giessen
!!!SCT: E1419
!!!YEM: Copyright 1995, estate of Helmut Schaffrath.
**kern
*ICvox
*Ivox
*M4/4
*k[f#]
*G:
=1
{4g
4g
4f#
4g
=2
8a
8g
8f#
8e
2d}
=3
{4b
4b
4a
4b
=4
4cc
4b
4a}
{8g
8g
=5
4a
4a
4a
8g
8f#
=6
4g
4dd
4b
4g}
=7
{4a
4a
4a
8g
8f#
=8
4g
4dd
4b
4g}
=9
{4cc
4ee
4.dd
8b
=10
8b
8a
4a
8g
8b
4dd}
=11
{4cc
4ee
4.dd
8b
=12
8b
8a
4a
4g
4r}
==
!!!AGN: Staende -, Soldaten - Lied, Liebe
!!!ONB: ESAC (Essen Associative Code) Database: ERK3
!!!AMT: simple quadruple
!!!AIN: vox
!!!EED: Helmut Schaffrath
!!!EEV: 1.0
*-
